packages/tokens/icons/implementation/size32Px.svg

<svg viewBox="0 0 32 32" fill="none" xmlns="http://www.w3.org/2000/svg" width="1em" height="1em"><path d="M11.097 4.5L4.5 4.5C3.39543 4.5 2.5 5.39543 2.5 6.5L2.5 20.5C2.5 21.6046 3.39543 22.5 4.5 22.5H27.5C28.6046 22.5 29.5 21.6046 29.5 20.5V18.5" stroke="currentColor" stroke-linecap="round"/><line x1="15.8955" y1="22" x2="15.8955" y2="27" stroke="currentColor"/><line x1="8.91045" y1="27.5" x2="22.9552" y2="27.5" stroke="currentColor" stroke-linecap="round"/><path d="M28.6077 10.3548H27.8057C27.6412 9.63496 27.3534 8.97686 26.9832 8.3599L27.5384 7.80463C27.7029 7.6401 27.7029 7.39332 27.5384 7.22879L25.7905 5.48072C25.626 5.3162 25.3793 5.3162 25.2147 5.48072L24.6595 6.03599C24.0426 5.66581 23.3846 5.37789 22.6649 5.21337V4.41131C22.6649 4.18509 22.4798 4 22.2536 4H19.786C19.5598 4 19.3747 4.18509 19.3747 4.41131V5.21337C18.655 5.37789 17.9969 5.66581 17.38 6.03599L16.8043 5.48072C16.6397 5.3162 16.393 5.3162 16.2285 5.48072L14.4806 7.22879C14.3161 7.39332 14.3161 7.6401 14.4806 7.80463L15.0358 8.3599C14.6656 8.97686 14.3778 9.63496 14.2132 10.3548H13.4113C13.1851 10.3548 13 10.5398 13 10.7661V13.2339C13 13.4602 13.1851 13.6452 13.4113 13.6452H14.2132C14.3778 14.365 14.6656 15.0231 15.0358 15.6401L14.4806 16.1954C14.3161 16.3599 14.3161 16.6067 14.4806 16.7712L16.2285 18.5193C16.393 18.6838 16.6397 18.6838 16.8043 18.5193L17.3595 17.964C17.9764 18.3342 18.6344 18.6221 19.3541 18.7866V19.5887C19.3541 19.8149 19.5392 20 19.7654 20H22.233C22.4592 20 22.6443 19.8149 22.6443 19.5887V18.7866C23.364 18.6221 24.0221 18.3342 24.639 17.964L25.1942 18.5193C25.3587 18.6838 25.6055 18.6838 25.77 18.5193L27.5179 16.7712C27.6824 16.6067 27.6824 16.3599 27.5179 16.1954L26.9626 15.6401C27.3328 15.0231 27.6207 14.365 27.7852 13.6452H28.5872C28.8134 13.6452 28.9984 13.4602 28.9984 13.2339V10.7661C29.019 10.5398 28.8339 10.3548 28.6077 10.3548Z" stroke="currentColor" stroke-miterlimit="10"/><circle cx="21" cy="12" r="3.5" stroke="currentColor"/></svg>

<svg xmlns="http://www.w3.org/2000/svg" fill="none" viewBox="0 0 32 32" width="1em" height="1em"><path stroke="currentColor" stroke-linecap="round" d="M11.097 4.5H4.5a2 2 0 0 0-2 2v14a2 2 0 0 0 2 2h23a2 2 0 0 0 2-2v-2"/><path stroke="currentColor" d="M15.896 22v5"/><path stroke="currentColor" stroke-linecap="round" d="M8.91 27.5h14.045"/><path stroke="currentColor" stroke-miterlimit="10" d="M28.608 10.355h-.802a6.809 6.809 0 0 0-.823-1.995l.555-.555a.398.398 0 0 0 0-.576L25.791 5.48a.398.398 0 0 0-.576 0l-.555.555a6.81 6.81 0 0 0-1.995-.823V4.41a.413.413 0 0 0-.411-.41h-2.468a.413.413 0 0 0-.411.411v.802a6.81 6.81 0 0 0-1.995.823l-.576-.555a.398.398 0 0 0-.575 0L14.48 7.229a.398.398 0 0 0 0 .576l.555.555a6.812 6.812 0 0 0-.823 1.995h-.802a.412.412 0 0 0-.411.411v2.468c0 .226.185.411.411.411h.802c.165.72.453 1.378.823 1.995l-.555.555a.398.398 0 0 0 0 .576l1.748 1.748a.398.398 0 0 0 .575 0l.556-.555c.616.37 1.274.658 1.994.823v.802c0 .226.185.411.411.411h2.468a.413.413 0 0 0 .411-.411v-.802a6.809 6.809 0 0 0 1.995-.823l.555.555a.398.398 0 0 0 .576 0l1.748-1.748a.398.398 0 0 0 0-.576l-.555-.555a6.81 6.81 0 0 0 .822-1.995h.802a.412.412 0 0 0 .411-.411v-2.468a.383.383 0 0 0-.39-.411Z"/><circle cx="21" cy="12" r="3.5" stroke="currentColor"/></svg>
